Newaita/actions/scalable/draw-line.svg

<?xml version="1.0" encoding="UTF-8"?>
<svg xmlns="http://www.w3.org/2000/svg" xmlns:xlink="http://www.w3.org/1999/xlink" width="512pt" height="512pt" viewBox="0 0 512 512" version="1.1">
<g id="surface1">
<path style=" stroke:none;fill-rule:nonzero;fill:rgb(25.882354%,25.882354%,25.882354%);fill-opacity:1;" d="M 338.699219 25.167969 L 486.878906 25.167969 Z M 338.699219 141.597656 L 338.699219 145.0625 L 141.0625 342.699219 L 105.84375 342.699219 L 105.84375 374.453125 L 169.347656 374.453125 L 169.347656 370.984375 L 366.984375 173.351562 L 412.789062 173.351562 L 412.789062 141.597656 Z M 338.699219 141.597656 "/>
<path style=" stroke:none;fill-rule:nonzero;fill:rgb(14.901961%,65.098041%,60.392159%);fill-opacity:1;" d="M 370.453125 25.167969 C 352.859375 25.167969 338.699219 39.332031 338.699219 56.921875 L 338.699219 141.597656 C 338.699219 159.1875 352.859375 173.351562 370.453125 173.351562 L 455.125 173.351562 C 472.71875 173.351562 486.878906 159.1875 486.878906 141.597656 L 486.878906 56.921875 C 486.878906 39.332031 472.71875 25.167969 455.125 25.167969 Z M 391.621094 56.921875 L 433.957031 56.921875 C 445.683594 56.921875 455.125 66.363281 455.125 78.089844 L 455.125 120.429688 C 455.125 132.15625 445.683594 141.597656 433.957031 141.597656 L 391.621094 141.597656 C 379.894531 141.597656 370.453125 132.15625 370.453125 120.429688 L 370.453125 78.089844 C 370.453125 66.363281 379.894531 56.921875 391.621094 56.921875 Z M 391.621094 56.921875 "/>
<path style=" stroke:none;fill-rule:nonzero;fill:rgb(14.901961%,65.098041%,60.392159%);fill-opacity:1;" d="M 52.921875 342.699219 C 35.332031 342.699219 21.167969 356.859375 21.167969 374.453125 L 21.167969 459.128906 C 21.167969 476.71875 35.332031 490.878906 52.921875 490.878906 L 137.597656 490.878906 C 155.1875 490.878906 169.347656 476.71875 169.347656 459.128906 L 169.347656 374.453125 C 169.347656 356.859375 155.1875 342.699219 137.597656 342.699219 Z M 74.089844 374.453125 L 116.429688 374.453125 C 128.15625 374.453125 137.597656 383.894531 137.597656 395.621094 L 137.597656 437.957031 C 137.597656 449.6875 128.15625 459.128906 116.429688 459.128906 L 74.089844 459.128906 C 62.363281 459.128906 52.921875 449.6875 52.921875 437.957031 L 52.921875 395.621094 C 52.921875 383.894531 62.363281 374.453125 74.089844 374.453125 Z M 74.089844 374.453125 "/>
</g>
</svg>

<svg xmlns="http://www.w3.org/2000/svg" width="512pt" height="512pt" viewBox="0 0 512 512"><path d="M338.7 25.168h148.179zm0 116.43v3.464L141.062 342.7h-35.22v31.754h63.505v-3.469l197.636-197.632h45.805v-31.754zm0 0" fill="#424242"/><path d="M370.453 25.168c-17.594 0-31.754 14.164-31.754 31.754v84.676c0 17.59 14.16 31.754 31.754 31.754h84.672c17.594 0 31.754-14.165 31.754-31.754V56.922c0-17.59-14.16-31.754-31.754-31.754zm21.168 31.754h42.336a21.122 21.122 0 0 1 21.168 21.168v42.34a21.122 21.122 0 0 1-21.168 21.168h-42.336a21.122 21.122 0 0 1-21.168-21.168V78.09a21.122 21.122 0 0 1 21.168-21.168zm0 0M52.922 342.7c-17.59 0-31.754 14.16-31.754 31.753v84.676c0 17.59 14.164 31.75 31.754 31.75h84.676c17.59 0 31.75-14.16 31.75-31.75v-84.676c0-17.594-14.16-31.754-31.75-31.754zm21.168 31.753h42.34a21.122 21.122 0 0 1 21.168 21.168v42.336a21.123 21.123 0 0 1-21.168 21.172H74.09a21.123 21.123 0 0 1-21.168-21.172v-42.336a21.122 21.122 0 0 1 21.168-21.168zm0 0" fill="#26a69a"/></svg>
